media/images/triangle.svg

<svg width="1920" height="100" viewBox="0 0 1920 100" fill="none" xmlns="http://www.w3.org/2000/svg">
<rect width="1920" height="100" fill="#557FEB"/>
<path d="M492 79L461 100H509.5L492 79Z" fill="#2150C9"/>
<path d="M1447.5 21L1478.5 0L1430 4.24e-06L1447.5 21Z" fill="#2150C9"/>
<path d="M79.5 21L110.5 0L62 4.24e-06L79.5 21Z" fill="#2150C9"/>
<path d="M1861 79L1830 100L1878.5 100L1861 79Z" fill="#A8E8F9"/>
<path d="M393.68 40L425 -3.8147e-06L376 4.69018e-07L393.68 40Z" fill="#2150C9"/>
<path d="M237.77 46.5731L213.405 23L206 43.1532L237.77 46.5731Z" fill="#2150C9"/>
<path d="M1740.77 68.5731L1716.4 45L1709 65.1532L1740.77 68.5731Z" fill="#2150C9"/>
<path d="M1547.32 60L1516 100L1565 100L1547.32 60Z" fill="#2150C9"/>
<path d="M162.32 58L131 100H180L162.32 58Z" fill="#D6F12D"/>
<path d="M585.931 46.8262L583.337 82.0001L612.954 54.7678L585.931 46.8262Z" fill="#D6F12D"/>
<path d="M1778.18 42L1809.5 0L1760.5 4.28372e-06L1778.18 42Z" fill="#D6F12D"/>
<path d="M313.056 75.5074L308.791 40.8402L285 64.6924L313.056 75.5074Z" fill="#A8E8F9"/>
<path d="M663.076 70.4163L666.211 42.9999L681.975 52.8649L663.076 70.4163Z" fill="#2150C9"/>
<path d="M1195.44 55.4048L1207.86 40.6516L1211.68 58.8506L1195.44 55.4048Z" fill="#2150C9"/>
<path d="M832.444 87.7532L844.856 73L848.679 91.199L832.444 87.7532Z" fill="#2150C9"/>
<path d="M1080.44 19.7532L1092.86 4.99995L1096.68 23.199L1080.44 19.7532Z" fill="#2150C9"/>
<path d="M1627.44 25.4926L1631.71 60.1598L1655.5 36.3076L1627.44 25.4926Z" fill="#A8E8F9"/>
<path d="M1262.21 51.6063L1266.47 86.2735L1290.26 62.4214L1262.21 51.6063Z" fill="#A8E8F9"/>
<path d="M916.882 81.7631L918.761 93.4018L926.399 85.7442L916.882 81.7631Z" fill="#A8E8F9"/>
<path d="M1141 26.2406L1116.09 23.2086L1133.2 6.0931L1141 26.2406Z" fill="#A8E8F9"/>
<path d="M1341.04 43.2194L1375.61 48.231L1358.86 19.0001L1341.04 43.2194Z" fill="#2150C9"/>
<path d="M466.723 66.6061L463.573 41L446 58.6178L466.723 66.6061Z" fill="#D6F12D"/>
<path d="M706.723 36.6061L703.573 11L686 28.6178L706.723 36.6061Z" fill="#D6F12D"/>
<path d="M1479.53 28.6284L1476.93 60L1503.5 33.362L1479.53 28.6284Z" fill="#2150C9"/>
<path d="M1158.81 69.7246L1142 89.2921L1166.86 90.4257L1158.81 69.7246Z" fill="#2150C9"/>
<path d="M1328.23 66.357L1331.38 91.9631L1348.95 74.3453L1328.23 66.357Z" fill="#D6F12D"/>
<path d="M1252.9 18.9754L1274.71 32.7577L1272.21 8.00013L1252.9 18.9754Z" fill="#D6F12D"/>
<path d="M830.482 16.8556L842.117 24.2088L840.783 11.0001L830.482 16.8556Z" fill="#D6F12D"/>
<path d="M1062.48 86.8556L1074.12 94.2088L1072.78 81.0001L1062.48 86.8556Z" fill="#D6F12D"/>
<path d="M50.7226 66.6061L47.5729 41L30 58.6178L50.7226 66.6061Z" fill="#2150C9"/>
<path d="M531.723 47.6061L528.573 22L511 39.6178L531.723 47.6061Z" fill="#2150C9"/>
<path d="M757.723 86.6061L754.573 61L737 78.6178L757.723 86.6061Z" fill="#A8E8F9"/>
<path d="M775.723 42.6061L772.573 17L755 34.6178L775.723 42.6061Z" fill="#2150C9"/>
<path d="M1889.78 34.3939L1892.93 60L1910.5 42.3822L1889.78 34.3939Z" fill="#2150C9"/>
</svg>

<svg width="1920" height="100" fill="none" xmlns="http://www.w3.org/2000/svg"><path fill="#557FEB" d="M0 0h1920v100H0z"/><path d="m492 79-31 21h48.5L492 79zm955.5-58 31-21H1430l17.5 21zm-1368 0 31-21H62l17.5 21z" fill="#2150C9"/><path d="m1861 79-31 21h48.5L1861 79z" fill="#A8E8F9"/><path d="M393.68 40 425 0h-49l17.68 40zm-155.91 6.573L213.405 23 206 43.153l31.77 3.42zm1503 22L1716.4 45l-7.4 20.153 31.77 3.42zM1547.32 60 1516 100h49l-17.68-40z" fill="#2150C9"/><path d="M162.32 58 131 100h49l-17.68-42zm423.611-11.174L583.337 82l29.617-27.232-27.023-7.942zM1778.18 42l31.32-42h-49l17.68 42z" fill="#D6F12D"/><path d="m313.056 75.507-4.265-34.667L285 64.692l28.056 10.815z" fill="#A8E8F9"/><path d="M663.076 70.416 666.211 43l15.764 9.865-18.899 17.551zm532.364-15.011 12.42-14.753 3.82 18.199-16.24-3.446zM832.444 87.753 844.856 73l3.823 18.199-16.235-3.446zm247.996-68L1092.86 5l3.82 18.199-16.24-3.446z" fill="#2150C9"/><path d="m1627.44 25.493 4.27 34.667 23.79-23.852-28.06-10.815zm-365.23 26.113 4.26 34.667 23.79-23.852-28.05-10.815zM916.882 81.763l1.879 11.639 7.638-7.658-9.517-3.98zM1141 26.24l-24.91-3.031 17.11-17.116 7.8 20.148z" fill="#A8E8F9"/><path d="m1341.04 43.22 34.57 5.011-16.75-29.23-17.82 24.218z" fill="#2150C9"/><path d="M466.723 66.606 463.573 41 446 58.618l20.723 7.988zm240-30L703.573 11 686 28.618l20.723 7.988z" fill="#D6F12D"/><path d="M1479.53 28.628 1476.93 60l26.57-26.638-23.97-4.734zm-320.72 41.097L1142 89.292l24.86 1.134-8.05-20.701z" fill="#2150C9"/><path d="m1328.23 66.357 3.15 25.606 17.57-17.618-20.72-7.988zm-75.33-47.382 21.81 13.783L1272.21 8l-19.31 10.975zm-422.418-2.119 11.635 7.353L840.783 11l-10.301 5.856zm231.998 70 11.64 7.353L1072.78 81l-10.3 5.856z" fill="#D6F12D"/><path d="M50.723 66.606 47.573 41 30 58.618l20.723 7.988zm481-19L528.573 22 511 39.618l20.723 7.988z" fill="#2150C9"/><path d="M757.723 86.606 754.573 61 737 78.618l20.723 7.988z" fill="#A8E8F9"/><path d="M775.723 42.606 772.573 17 755 34.618l20.723 7.988zm1114.057-8.212L1892.93 60l17.57-17.618-20.72-7.988z" fill="#2150C9"/></svg>
